static/asset/fontsize-open.svg

<?xml version="1.0" encoding="UTF-8"?>
<svg width="31px" height="24px" viewBox="0 0 31 24" version="1.1" xmlns="http://www.w3.org/2000/svg" xmlns:xlink="http://www.w3.org/1999/xlink">
    <!-- Generator: Sketch 41.2 (35397) - http://www.bohemiancoding.com/sketch -->
    <title>fontsize_opened</title>
    <desc>Created with Sketch.</desc>
    <defs></defs>
    <g id="Page-1" stroke="none" stroke-width="1" fill="none" fill-rule="evenodd">
        <g id="FONTSIZE_2-spec" transform="translate(-10.000000, -9.000000)">
            <g id="fontsize_opened" transform="translate(10.000000, 9.000000)">
                <path d="M9.29395071,14.2902414 L9.29395071,13.6555473 C9.29395071,13.2192898 9.49162989,12.8042393 9.83548561,12.5209749 L11.6426217,11.0296711 L11.8130347,10.8857667 L11.5812729,10.8857667 L5.64332383,10.8857667 C4.78974365,10.8857667 4.09748785,10.2169901 4.09748785,9.39219074 C4.09748785,8.56814882 4.78974365,7.89937216 5.64332383,7.89937216 L11.5812729,7.89937216 C15.4591173,7.89937216 16.5967193,10.8691041 13.6519812,13.2995733 L12.4515157,14.2902414 L18.2304127,14.2902414 C19.0847502,14.2902414 19.777006,14.959018 19.777006,15.78306 C19.777006,16.6078593 19.0847502,17.2766359 18.2304127,17.2766359 L12.3863801,17.2766359 L12.3863801,19.9464409 C12.3863801,22.1875622 10.5072918,24 8.18058525,24 L7.28307636,24 C6.42949618,24 5.73724038,23.3312233 5.73724038,22.506424 C5.73724038,21.6823821 6.42949618,21.0136054 7.28307636,21.0136054 L8.18058525,21.0136054 C8.80013148,21.0136054 9.29395071,20.5372062 9.29395071,19.9464409 L9.29395071,17.2766359 L1.54659338,17.2766359 C0.693013194,17.2766359 0,16.6078593 0,15.78306 C0,14.959018 0.693013194,14.2902414 1.54659338,14.2902414 L9.29395071,14.2902414 Z M12.5901184,2.36965704 L15.0819363,2.36965704 C17.2889751,2.36965704 19.0786911,4.10181133 19.0786911,6.23235353 L19.0786911,8.60223144 C19.0786911,9.42703075 18.3864353,10.0958074 17.5320977,10.0958074 C16.6785175,10.0958074 15.9862617,9.42703075 15.9862617,8.60223144 L15.9862617,6.23235353 C15.9862617,5.74913778 15.5795425,5.35605161 15.0819363,5.35605161 L4.07703828,5.35605161 C3.57640252,5.35605161 3.17347025,5.74610821 3.17347025,6.23235353 L3.17347025,8.60223144 C3.17347025,9.42703075 2.48121445,10.0958074 1.62687687,10.0958074 C0.77329669,10.0958074 0.0810408872,9.42703075 0.0810408872,8.60223144 L0.0810408872,6.23235353 C0.0810408872,4.09878177 1.86696997,2.36965704 4.07703828,2.36965704 L8.3275192,2.36965704 C7.88444519,1.78116387 7.94276433,0.952577606 8.4964175,0.427705318 C9.10536024,-0.150184372 10.0846674,-0.141095675 10.6830067,0.446640105 L12.3871375,2.12274743 C12.4651488,2.19924396 12.533314,2.28255703 12.5901184,2.36965704 Z" id="fontsize" fill="#7F7F7F"></path>
                <g id="magnifier" transform="translate(15.000000, 8.000000)">
                    <ellipse id="O" fill="#F1F1F1" cx="9" cy="7" rx="7" ry="7"></ellipse>
                    <path d="M6.75,6.25 L8,6.25 C8.41421356,6.25 8.75,6.58578644 8.75,7 C8.75,7.41421356 8.41421356,7.75 8,7.75 L6.75,7.75 L6.75,9 C6.75,9.41421356 6.41421356,9.75 6,9.75 C5.58578644,9.75 5.25,9.41421356 5.25,9 L5.25,7.75 L4,7.75 C3.58578644,7.75 3.25,7.41421356 3.25,7 C3.25,6.58578644 3.58578644,6.25 4,6.25 L5.25,6.25 L5.25,5 C5.25,4.58578644 5.58578644,4.25 6,4.25 C6.41421356,4.25 6.75,4.58578644 6.75,5 L6.75,6.25 Z M9.13284841,12.1181544 C8.22098314,12.6775042 7.14815304,13 6,13 C2.6862915,13 0,10.3137085 0,7 C0,3.6862915 2.6862915,1 6,1 C9.3137085,1 12,3.6862915 12,7 C12,8.14815304 11.6775042,9.22098314 11.1181544,10.1328484 C11.2785591,10.2053426 11.4288268,10.3075064 11.5606602,10.4393398 L14.5606602,13.4393398 C15.1464466,14.0251263 15.1464466,14.9748737 14.5606602,15.5606602 C13.9748737,16.1464466 13.0251263,16.1464466 12.4393398,15.5606602 L9.43933983,12.5606602 C9.30750643,12.4288268 9.20534262,12.2785591 9.13284841,12.1181544 Z M2,7 C2,4.790861 3.790861,3 6,3 C8.209139,3 10,4.790861 10,7 C10,9.209139 8.209139,11 6,11 C3.790861,11 2,9.209139 2,7 Z" id="magnifier_" fill="#7F7F7F" transform="translate(7.500000, 8.500000) scale(-1, 1) translate(-7.500000, -8.500000) "></path>
                </g>
            </g>
        </g>
    </g>
</svg>

<svg width="31" height="24" xmlns="http://www.w3.org/2000/svg"><g fill="none" fill-rule="evenodd"><path d="M9.294 14.29v-.634c0-.437.198-.852.541-1.135l1.808-1.491.17-.144h-6.17c-.853 0-1.546-.669-1.546-1.494 0-.824.693-1.493 1.546-1.493h5.938c3.878 0 5.016 2.97 2.071 5.4l-1.2.991h5.778c.855 0 1.547.669 1.547 1.493 0 .825-.692 1.494-1.547 1.494h-5.844v2.67c0 2.24-1.879 4.053-4.205 4.053h-.898c-.854 0-1.546-.669-1.546-1.494 0-.824.692-1.492 1.546-1.492h.898c.62 0 1.113-.477 1.113-1.068v-2.67H1.547C.693 17.277 0 16.609 0 15.784c0-.824.693-1.493 1.547-1.493h7.747zM12.59 2.37h2.492c2.207 0 3.997 1.732 3.997 3.862v2.37c0 .825-.693 1.494-1.547 1.494-.853 0-1.546-.669-1.546-1.494v-2.37c0-.483-.406-.876-.904-.876H4.077c-.5 0-.904.39-.904.876v2.37c0 .825-.692 1.494-1.546 1.494-.854 0-1.546-.669-1.546-1.494v-2.37C.081 4.1 1.867 2.37 4.077 2.37h4.25a1.456 1.456 0 0 1 .17-1.942 1.586 1.586 0 0 1 2.186.019l1.704 1.676c.078.076.146.16.203.247z" fill="#7F7F7F"/><g transform="translate(15 8)"><ellipse fill="#F1F1F1" cx="9" cy="7" rx="7" ry="7"/><path d="M8.25 6.25H7a.75.75 0 0 0 0 1.5h1.25V9a.75.75 0 0 0 1.5 0V7.75H11a.75.75 0 0 0 0-1.5H9.75V5a.75.75 0 0 0-1.5 0v1.25zm-2.383 5.868a6 6 0 1 0-1.985-1.985c-.16.072-.31.175-.443.306l-3 3a1.5 1.5 0 0 0 2.122 2.122l3-3c.131-.132.234-.282.306-.443zM13 7a4 4 0 1 0-8 0 4 4 0 0 0 8 0z" fill="#7F7F7F"/></g></g></svg>
